X: 35560
T: Rusty Gulley, The
R: three-two
M: 3/2
K: Bminor
Bcde f2 B2 d2 B2|Bc e2 e2 d2 c2 F2|Bcde f2 B2 d2 B2|Bc g2 f2 d2 eedc|
Bcde f2 B2 d2 B2|Bc e2 e2 d2 c2 F2|Bcde f2 B2 d2 B2|Bc g2 f2 d2 e4|
b4 a4 g3 b|a2 e4 g2 f2 e2|g3 a1 f4 e2 de|f2 B2 B2 d2 c2 B2|
b4 a4 g3 b|a2 e4 g2 f2 e2|g3 a1 f4 e2 de|f2 B2 B2 d2 c4|

